events/images/interview.svg

<?xml version="1.0" encoding="UTF-8" standalone="no"?>
<svg
   width="492"
   height="492"
   overflow="hidden"
   version="1.1"
   id="svg11"
   sodipodi:docname="interview.svg"
   inkscape:version="1.4.3 (0d15f75, 2025-12-25)"
   xmlns:inkscape="http://www.inkscape.org/namespaces/inkscape"
   xmlns:sodipodi="http://sodipodi.sourceforge.net/DTD/sodipodi-0.dtd"
   xmlns="http://www.w3.org/2000/svg"
   xmlns:svg="http://www.w3.org/2000/svg">
  <defs
     id="defs11" />
  <sodipodi:namedview
     id="namedview11"
     pagecolor="#ffffff"
     bordercolor="#000000"
     borderopacity="0.25"
     inkscape:showpageshadow="2"
     inkscape:pageopacity="0.0"
     inkscape:pagecheckerboard="0"
     inkscape:deskcolor="#d1d1d1"
     inkscape:zoom="0.6875"
     inkscape:cx="245.81818"
     inkscape:cy="246.54545"
     inkscape:window-width="1024"
     inkscape:window-height="1186"
     inkscape:window-x="0"
     inkscape:window-y="25"
     inkscape:window-maximized="0"
     inkscape:current-layer="svg11" />
  <g
     id="g11"
     transform="translate(-394,-114)">
    <path
       d="M 394,270.043 C 394,183.863 463.863,114 550.043,114 H 729.957 C 816.137,114 886,183.863 886,270.043 V 449.957 C 886,536.137 816.137,606 729.957,606 H 550.043 C 463.863,606 394,536.137 394,449.957 Z"
       fill="#fceebd"
       fill-rule="evenodd"
       id="path1" />
    <g
       id="g4">
      <g
         id="g3">
        <g
           id="g2">
          <path
             d="m 568.396,477.417 v -2.979 h 11.916 c 21.153,0 22.642,23.833 62.563,23.833 H 696.5 c 9.86,-0.03 17.846,-8.015 17.875,-17.875 0.069,-4.426 -1.63,-8.696 -4.719,-11.866 -0.012,-0.012 -0.011,-0.031 0,-0.042 0.006,-0.006 0.013,-0.009 0.021,-0.009 h 1.719 c 9.86,-0.029 17.845,-8.015 17.875,-17.875 0.044,-4.661 -1.766,-9.149 -5.032,-12.477 -0.013,-0.009 -0.016,-0.028 -0.006,-0.041 0.002,-0.003 0.004,-0.004 0.006,-0.006 9.592,-2.108 15.66,-11.592 13.552,-21.184 -0.771,-3.511 -2.587,-6.705 -5.21,-9.162 -0.013,-0.008 -0.016,-0.025 -0.008,-0.037 0.002,-0.003 0.005,-0.006 0.008,-0.008 7.021,-2.517 11.674,-9.21 11.586,-16.668 -0.03,-9.86 -8.016,-17.846 -17.875,-17.875 h -56.604 c -4.787,-0.083 -8.693,-3.858 -8.938,-8.64 0.298,-5.362 8.908,-16.052 8.938,-56.699 0.048,-9.286 -6.976,-17.084 -16.216,-18.003 -0.557,-0.051 -1.111,-0.075 -1.66,-0.075 -9.872,0 -17.874,8.003 -17.874,17.875 0,36.823 -34.857,60.644 -48.379,68.581 -3.266,1.915 -6.984,2.923 -10.77,2.919 h -6.393 v -2.979 c -0.021,-6.573 -5.344,-11.896 -11.917,-11.917 h -50.646 v 125.125 h 50.646 c 6.573,-0.021 11.896,-5.344 11.917,-11.916 z m 6.393,-92.355 c 4.855,0.002 9.622,-1.293 13.809,-3.75 15.423,-9.06 51.298,-34.383 51.298,-73.708 0,-6.581 5.335,-11.916 11.916,-11.916 6.582,-0.012 11.927,5.313 11.939,11.894 10e-4,0.248 -0.007,0.496 -0.022,0.743 -0.074,29.071 -4.626,41.896 -7.072,48.778 -0.957,2.256 -1.586,4.638 -1.865,7.073 -0.012,0.212 -0.012,0.425 0,0.637 0.443,7.936 6.948,14.177 14.896,14.291 h 56.586 c 6.594,0.043 11.922,5.394 11.934,11.988 0.06,4.927 -3.018,9.347 -7.659,10.999 -3.1,1.105 -4.717,4.514 -3.612,7.613 0.321,0.9 0.852,1.708 1.55,2.359 2.645,2.462 4.028,5.992 3.763,9.596 -0.575,5.246 -4.43,9.542 -9.584,10.68 -3.176,0.86 -5.054,4.132 -4.193,7.309 0.268,0.992 0.789,1.898 1.512,2.629 2.165,2.22 3.362,5.208 3.327,8.309 -0.034,6.571 -5.346,11.891 -11.916,11.935 h -1.788 c -3.29,0.002 -5.956,2.671 -5.954,5.962 10e-4,1.558 0.612,3.054 1.703,4.167 2.012,2.064 3.114,4.847 3.06,7.728 -0.034,6.57 -5.347,11.89 -11.917,11.934 h -53.625 c -21.054,0 -29.815,-6.852 -38.291,-13.447 -6.545,-5.107 -13.311,-10.386 -24.272,-10.386 h -11.916 v -83.417 z m -62.997,-14.895 h 44.687 c 3.28,0.026 5.933,2.678 5.959,5.958 v 101.274 c -0.015,3.287 -2.671,5.952 -5.959,5.976 h -44.687 z"
             stroke="#00883a"
             stroke-width="11.9167"
             id="path2" />
        </g>
      </g>
    </g>
    <path
       d="m 669.5,242 c 0,-37.279 30.221,-67.5 67.5,-67.5 37.279,0 67.5,30.221 67.5,67.5 0,37.279 -30.221,67.5 -67.5,67.5 -37.279,0 -67.5,-30.221 -67.5,-67.5 z"
       stroke="#00883a"
       stroke-width="13.3333"
       stroke-linejoin="round"
       stroke-miterlimit="10"
       fill="none"
       fill-rule="evenodd"
       id="path4" />
    <path
       d="m 672.5,231.5 125.409,32.651"
       stroke="#00883a"
       stroke-width="13.3333"
       stroke-linejoin="round"
       stroke-miterlimit="10"
       fill="none"
       fill-rule="evenodd"
       id="path5" />
    <path
       d="m 674.5,270.5 102.441,29.21"
       stroke="#00883a"
       stroke-width="13.3333"
       stroke-linejoin="round"
       stroke-miterlimit="10"
       fill="none"
       fill-rule="evenodd"
       id="path6" />
    <path
       d="m 755.085,304.069 c -1.364,10.596 -18.709,14.96 -38.74,9.746 -20.031,-5.213 -35.163,-18.03 -33.799,-28.626 0.03,-0.229 0.067,-0.457 0.112,-0.682 l 36.158,10.122 z"
       stroke="#fceebd"
       stroke-width="2.66667"
       stroke-linejoin="round"
       stroke-miterlimit="10"
       fill="#fceebd"
       fill-rule="evenodd"
       id="path7" />
    <path
       d="M 0,0 18.0738,60.5162"
       stroke="#fceebd"
       stroke-width="13.3333"
       stroke-linejoin="round"
       stroke-miterlimit="10"
       fill="#fceebd"
       fill-rule="evenodd"
       transform="matrix(1,0,0,-1,734.5,360.016)"
       id="path8" />
    <path
       d="M 0,0 5.61459,18.1649"
       stroke="#fceebd"
       stroke-width="13.3333"
       stroke-linejoin="round"
       stroke-miterlimit="10"
       fill="#fceebd"
       fill-rule="evenodd"
       transform="matrix(1,0,0,-1,683.5,299.665)"
       id="path9" />
    <path
       d="M 0,0 6.93617,48.2687"
       stroke="#00883a"
       stroke-width="13.3333"
       stroke-linejoin="round"
       stroke-miterlimit="10"
       fill="none"
       fill-rule="evenodd"
       transform="matrix(1,0,0,-1,669.5,320.769)"
       id="path10" />
    <path
       d="M 0,0 32.5325,84.127"
       stroke="#00883a"
       stroke-width="13.3333"
       stroke-linejoin="round"
       stroke-miterlimit="10"
       fill="none"
       fill-rule="evenodd"
       transform="matrix(1,0,0,-1,735.5,380.627)"
       id="path11" />
  </g>
</svg>

<svg width="1280" height="720" xmlns="http://www.w3.org/2000/svg" xmlns:xlink="http://www.w3.org/1999/xlink" overflow="hidden"><g><rect x="0" y="0" width="1280" height="720" fill="#FFFFFF"/><path d="M394 270.043C394 183.863 463.863 114 550.043 114L729.957 114C816.137 114 886 183.863 886 270.043L886 449.957C886 536.137 816.137 606 729.957 606L550.043 606C463.863 606 394 536.137 394 449.957Z" fill="#FCEEBD" fill-rule="evenodd"/><g><g><g><path d="M568.396 477.417 568.396 474.438 580.312 474.438C601.465 474.438 602.954 498.271 642.875 498.271L696.5 498.271C706.36 498.241 714.346 490.256 714.375 480.396 714.444 475.97 712.745 471.7 709.656 468.53 709.644 468.518 709.645 468.499 709.656 468.488 709.662 468.482 709.669 468.479 709.677 468.479L711.396 468.479C721.256 468.45 729.241 460.464 729.271 450.604 729.315 445.943 727.505 441.455 724.239 438.127 724.226 438.118 724.223 438.099 724.233 438.086 724.235 438.083 724.237 438.082 724.239 438.08 733.831 435.972 739.899 426.488 737.791 416.896 737.02 413.385 735.204 410.191 732.581 407.734 732.568 407.726 732.565 407.709 732.573 407.697 732.575 407.694 732.578 407.691 732.581 407.689 739.602 405.172 744.255 398.479 744.167 391.021 744.137 381.161 736.151 373.175 726.292 373.146L669.688 373.146C664.901 373.063 660.995 369.288 660.75 364.506 661.048 359.144 669.658 348.454 669.688 307.807 669.736 298.521 662.712 290.723 653.472 289.804 652.915 289.753 652.361 289.729 651.812 289.729 641.94 289.729 633.938 297.732 633.938 307.604 633.938 344.427 599.081 368.248 585.559 376.185 582.293 378.1 578.575 379.108 574.789 379.104L568.396 379.104 568.396 376.125C568.375 369.552 563.052 364.229 556.479 364.208L505.833 364.208 505.833 489.333 556.479 489.333C563.052 489.312 568.375 483.989 568.396 477.417ZM574.789 385.062C579.644 385.064 584.411 383.769 588.598 381.312 604.021 372.252 639.896 346.929 639.896 307.604 639.896 301.023 645.231 295.688 651.812 295.688 658.394 295.676 663.739 301.001 663.751 307.582 663.752 307.83 663.744 308.078 663.729 308.325 663.655 337.396 659.103 350.221 656.657 357.103 655.7 359.359 655.071 361.741 654.792 364.176 654.78 364.388 654.78 364.601 654.792 364.813 655.235 372.749 661.74 378.99 669.688 379.104L726.274 379.104C732.868 379.147 738.196 384.498 738.208 391.092 738.268 396.019 735.19 400.439 730.549 402.091 727.449 403.196 725.832 406.605 726.937 409.704 727.258 410.604 727.789 411.412 728.487 412.063 731.132 414.525 732.515 418.055 732.25 421.659 731.675 426.905 727.82 431.201 722.666 432.339 719.49 433.199 717.612 436.471 718.473 439.648 718.741 440.64 719.262 441.546 719.985 442.277 722.15 444.497 723.347 447.485 723.312 450.586 723.278 457.157 717.966 462.477 711.396 462.521L709.608 462.521C706.318 462.523 703.652 465.192 703.654 468.483 703.655 470.041 704.266 471.537 705.357 472.65 707.369 474.714 708.471 477.497 708.417 480.378 708.383 486.948 703.07 492.268 696.5 492.312L642.875 492.312C621.821 492.312 613.06 485.46 604.584 478.865 598.039 473.758 591.273 468.479 580.312 468.479L568.396 468.479 568.396 385.062ZM511.792 370.167 556.479 370.167C559.759 370.193 562.412 372.845 562.438 376.125L562.438 477.399C562.423 480.686 559.767 483.351 556.479 483.375L511.792 483.375Z" stroke="#00883A" stroke-width="11.9167"/></g></g></g><path d="M669.5 242C669.5 204.721 699.721 174.5 737 174.5 774.279 174.5 804.5 204.721 804.5 242 804.5 279.279 774.279 309.5 737 309.5 699.721 309.5 669.5 279.279 669.5 242Z" stroke="#00883A" stroke-width="13.3333" stroke-linejoin="round" stroke-miterlimit="10" fill="none" fill-rule="evenodd"/><path d="M672.5 231.5 797.909 264.151" stroke="#00883A" stroke-width="13.3333" stroke-linejoin="round" stroke-miterlimit="10" fill="none" fill-rule="evenodd"/><path d="M674.5 270.5 776.941 299.71" stroke="#00883A" stroke-width="13.3333" stroke-linejoin="round" stroke-miterlimit="10" fill="none" fill-rule="evenodd"/><path d="M755.085 304.069C753.721 314.665 736.376 319.029 716.345 313.815 696.314 308.602 681.182 295.785 682.546 285.189 682.576 284.96 682.613 284.732 682.658 284.507L718.816 294.629Z" stroke="#FCEEBD" stroke-width="2.66667" stroke-linejoin="round" stroke-miterlimit="10" fill="#FCEEBD" fill-rule="evenodd"/><path d="M0 0 18.0738 60.5162" stroke="#FCEEBD" stroke-width="13.3333" stroke-linejoin="round" stroke-miterlimit="10" fill="#FCEEBD" fill-rule="evenodd" transform="matrix(1 0 0 -1 734.5 360.016)"/><path d="M0 0 5.61459 18.1649" stroke="#FCEEBD" stroke-width="13.3333" stroke-linejoin="round" stroke-miterlimit="10" fill="#FCEEBD" fill-rule="evenodd" transform="matrix(1 0 0 -1 683.5 299.665)"/><path d="M0 0 6.93617 48.2687" stroke="#00883A" stroke-width="13.3333" stroke-linejoin="round" stroke-miterlimit="10" fill="none" fill-rule="evenodd" transform="matrix(1 0 0 -1 669.5 320.769)"/><path d="M0 0 32.5325 84.127" stroke="#00883A" stroke-width="13.3333" stroke-linejoin="round" stroke-miterlimit="10" fill="none" fill-rule="evenodd" transform="matrix(1 0 0 -1 735.5 380.627)"/></g></svg>
